resources/ephedrine bare.svg

<?xml version="1.0"?>
<!DOCTYPE svg PUBLIC '-//W3C//DTD SVG 1.0//EN'
          'http://www.w3.org/TR/2001/REC-SVG-20010904/DTD/svg10.dtd'>
<svg fill-opacity="1" xmlns:xlink="http://www.w3.org/1999/xlink" color-rendering="auto" color-interpolation="auto" text-rendering="auto" stroke="black" stroke-linecap="square" width="168" stroke-miterlimit="10" shape-rendering="auto" stroke-opacity="1" fill="black" stroke-dasharray="none" font-weight="normal" stroke-width="1" height="111" xmlns="http://www.w3.org/2000/svg" font-family="'Dialog'" font-style="normal" stroke-linejoin="miter" font-size="12px" stroke-dashoffset="0" image-rendering="auto"
><!--Generated by Marvin with Batik SVG Generator
MolSource:
<?xml version="1.0" encoding="windows-1252"?><cml xmlns="http://www.chemaxon.com" xmlns:xsi="http://www.w3.org/2001/XMLSchema-instance" xsi:schemaLocation="http://www.chemaxon.com/marvin/schema/mrvSchema_16_02_15.xsd" version="ChemAxon file format v16.02.15, generated by v17.21.0">
<MDocument><MChemicalStruct><molecule molID="m1"><atomArray atomID="a1 a2 a3 a4 a5 a6 a7 a8 a9 a10 a11 a12" elementType="C C C C C C C C C N O C" x2="-6.587093333333334 -10.663893333333334 -11.955440000000001 -11.874800000000002 -10.502800000000002 -9.211253333333334 -9.291706666666666 -7.9633866666666675 -6.587093333333334 -5.253360000000001 -7.9633866666666675 -3.8464533333333337" y2="5.637146666666667 7.7879200000000015 6.949226666666667 5.4112800000000005 4.7120266666666675 5.550906666666667 7.088853333333335 7.867813333333334 7.177146666666667 7.947146666666667 9.407813333333335 7.320693333333335"></atomArray><bondArray><bond id="b1" atomRefs2="a2 a3" order="1"></bond><bond id="b2" atomRefs2="a3 a4" order="2"></bond><bond id="b3" atomRefs2="a4 a5" order="1"></bond><bond id="b4" atomRefs2="a5 a6" order="2"></bond><bond id="b5" atomRefs2="a2 a7" order="2"></bond><bond id="b6" atomRefs2="a6 a7" order="1"></bond><bond id="b7" atomRefs2="a7 a8" order="1"></bond><bond id="b8" atomRefs2="a9 a1" order="1"></bond><bond id="b9" atomRefs2="a8 a9" order="1"></bond><bond id="b10" atomRefs2="a9 a10" order="1"></bond><bond id="b11" atomRefs2="a8 a11" order="1"></bond><bond id="b12" atomRefs2="a10 a12" order="1"></bond></bondArray></molecule></MChemicalStruct></MDocument>
</cml>
--><defs id="genericDefs"
  /><g
  ><defs id="1059046431637-defs1"
    ><clipPath clipPathUnits="userSpaceOnUse" id="1059046431258-clipPath1"
      ><path d="M0 0 L168 0 L168 111 L0 111 L0 0 Z"
      /></clipPath
      ><clipPath clipPathUnits="userSpaceOnUse" id="1059046431934-clipPath1"
      ><path d="M107.5425 44.2664 C101.5213 44.2664 96.6402 49.1475 96.6402 55.1686 C96.6402 61.1898 101.5213 66.0709 107.5425 66.0709 C113.5636 66.0709 118.4447 61.1898 118.4447 55.1686 C118.4447 49.1475 113.5636 44.2664 107.5425 44.2664 Z"
      /></clipPath
      ><clipPath clipPathUnits="userSpaceOnUse" id="1059046431110-clipPath1"
      ><path d="M82.7163 32.3687 C77.0049 32.3687 72.3749 36.9987 72.3749 42.7101 C72.3749 48.4214 77.0049 53.0514 82.7163 53.0514 C88.4276 53.0514 93.0576 48.4214 93.0576 42.7101 C93.0576 36.9987 88.4276 32.3687 82.7163 32.3687 Z"
      /></clipPath
      ><clipPath clipPathUnits="userSpaceOnUse" id="1059046431428-clipPath1"
      ><path d="M136.863 32.6118 C130.7822 32.6118 125.8527 37.5412 125.8527 43.622 C125.8527 49.7028 130.7822 54.6323 136.863 54.6323 C142.9438 54.6323 147.8732 49.7028 147.8732 43.622 C147.8732 37.5412 142.9438 32.6118 136.863 32.6118 Z"
      /></clipPath
      ><clipPath clipPathUnits="userSpaceOnUse" id="1059046431945-clipPath1"
      ><path d="M-128.2806 -35.279 L39.7194 -35.279 L39.7194 75.721 L-128.2806 75.721 L-128.2806 -35.279 Z"
      /></clipPath
      ><clipPath clipPathUnits="userSpaceOnUse" id="105904643117-clipPath1"
      ><path d="M-79.2944 -8.9308 L88.7056 -8.9308 L88.7056 102.0692 L-79.2944 102.0692 L-79.2944 -8.9308 Z"
      /></clipPath
    ></defs
    ><g text-rendering="geometricPrecision"
    ><path d="M33.6758 43.6469 L10.3783 58.7757 C10.0998 58.9566 10.0206 59.3288 10.2015 59.6074 C10.3824 59.886 10.7547 59.9651 11.0333 59.7842 L34.3308 44.6555 C34.6093 44.4746 34.6885 44.1023 34.5076 43.8237 C34.3267 43.5452 33.9544 43.466 33.6758 43.6469 Z" stroke="none" clip-path="url(#1059046431258-clipPath1)"
    /></g
    ><g text-rendering="geometricPrecision"
    ><path d="M16.493 62.4757 C16.4756 62.144 16.1928 61.8893 15.8611 61.9067 C15.5294 61.9241 15.2747 62.2069 15.2921 62.5386 L16.3808 83.3023 C16.3982 83.634 16.6811 83.8886 17.0128 83.8712 C17.3445 83.8539 17.5991 83.571 17.5817 83.2393 ZM11.3062 59.2485 C11.2889 58.9168 11.006 58.6621 10.6743 58.6795 C10.3426 58.6969 10.088 58.9797 10.1053 59.3114 L11.56 87.0536 C11.5774 87.3853 11.8602 87.64 12.1919 87.6226 C12.5236 87.6052 12.7783 87.3223 12.7609 86.9906 Z" stroke="none" clip-path="url(#1059046431258-clipPath1)"
    /></g
    ><g text-rendering="geometricPrecision"
    ><path d="M11.8874 87.5578 L36.6361 100.1713 C36.9321 100.3221 37.2941 100.2045 37.4449 99.9086 C37.5957 99.6127 37.4781 99.2507 37.1822 99.0999 L12.4335 86.4864 C12.1375 86.3356 11.7755 86.4532 11.6247 86.7491 C11.4739 87.045 11.5915 87.407 11.8874 87.5578 Z" stroke="none" clip-path="url(#1059046431258-clipPath1)"
    /></g
    ><g text-rendering="geometricPrecision"
    ><path d="M36.7832 93.0256 C36.5046 93.2065 36.4255 93.5788 36.6064 93.8574 C36.7874 94.1359 37.1597 94.215 37.4382 94.0341 L54.875 82.7086 C55.1536 82.5277 55.2327 82.1554 55.0517 81.8768 C54.8708 81.5983 54.4985 81.5192 54.22 81.7001 ZM36.5817 99.1313 C36.3031 99.3122 36.224 99.6845 36.4049 99.9631 C36.5858 100.2416 36.9581 100.3207 37.2367 100.1398 L60.5342 85.0077 C60.8127 84.8268 60.8918 84.4545 60.7109 84.1759 C60.53 83.8974 60.1577 83.8183 59.8792 83.9992 Z" stroke="none" clip-path="url(#1059046431258-clipPath1)"
    /></g
    ><g text-rendering="geometricPrecision"
    ><path d="M34.2762 43.6155 C33.9803 43.4647 33.6183 43.5823 33.4675 43.8783 C33.3168 44.1742 33.4344 44.5362 33.7304 44.687 L58.4825 57.297 C58.7784 57.4478 59.1404 57.3302 59.2912 57.0342 C59.442 56.7383 59.3243 56.3763 59.0284 56.2255 ZM35.1149 49.6662 C34.8189 49.5154 34.457 49.633 34.3062 49.929 C34.1554 50.2249 34.2731 50.5869 34.569 50.7377 L53.094 60.1753 C53.39 60.3261 53.752 60.2085 53.9027 59.9125 C54.0535 59.6166 53.9359 59.2546 53.6399 59.1038 Z" stroke="none" clip-path="url(#1059046431258-clipPath1)"
    /></g
    ><g text-rendering="geometricPrecision"
    ><path d="M60.8071 84.4721 L59.3559 56.7299 C59.3385 56.3982 59.0557 56.1435 58.724 56.1608 C58.3923 56.1782 58.1376 56.461 58.155 56.7927 L59.6062 84.5349 C59.6236 84.8666 59.9064 85.1213 60.2381 85.1039 C60.5698 85.0866 60.8245 84.8037 60.8071 84.4721 Z" stroke="none" clip-path="url(#1059046431258-clipPath1)"
    /></g
    ><g text-rendering="geometricPrecision"
    ><path d="M59.0596 57.28 L83.0204 43.2287 C83.3069 43.0607 83.403 42.6924 83.2349 42.4059 C83.0669 42.1194 82.6986 42.0234 82.4121 42.1914 L58.4513 56.2426 C58.1648 56.4106 58.0687 56.7789 58.2368 57.0655 C58.4048 57.352 58.7731 57.448 59.0596 57.28 Z" stroke="none" clip-path="url(#1059046431258-clipPath1)"
    /></g
    ><g text-rendering="geometricPrecision"
    ><path d="M106.9412 55.1686 L106.9412 82.9478 C106.9412 83.28 107.2103 83.5491 107.5425 83.5491 C107.8746 83.5491 108.1437 83.28 108.1437 82.9478 L108.1437 55.1686 C108.1437 54.8365 107.8746 54.5673 107.5425 54.5673 C107.2103 54.5673 106.9412 54.8365 106.9412 55.1686 Z" stroke="none" clip-path="url(#1059046431258-clipPath1)"
    /></g
    ><g text-rendering="geometricPrecision"
    ><path d="M82.4466 43.2475 L107.2728 55.706 C107.5696 55.855 107.9309 55.7352 108.0799 55.4383 C108.2288 55.1414 108.109 54.7802 107.8122 54.6312 L82.9859 42.1727 C82.6891 42.0237 82.3278 42.1435 82.1789 42.4404 C82.0299 42.7372 82.1497 43.0985 82.4466 43.2475 Z" stroke="none" clip-path="url(#1059046431258-clipPath1)"
    /></g
    ><g fill="rgb(51,51,153)" text-rendering="geometricPrecision" stroke="rgb(51,51,153)"
    ><path d="M107.8431 55.6893 L126.7266 44.7874 C127.0142 44.6213 127.1127 44.2537 126.9466 43.9661 C126.7806 43.6784 126.4129 43.5799 126.1253 43.746 L107.2418 54.6479 C106.9542 54.814 106.8557 55.1816 107.0217 55.4692 C107.1878 55.7569 107.5555 55.8554 107.8431 55.6893 Z" stroke="none" clip-path="url(#1059046431258-clipPath1)"
      /><path fill="black" d="M107.8431 55.6893 L126.7266 44.7874 C127.0142 44.6213 127.1127 44.2537 126.9466 43.9661 C126.7806 43.6784 126.4129 43.5799 126.1253 43.746 L107.2418 54.6479 C106.9542 54.814 106.8557 55.1816 107.0217 55.4692 C107.1878 55.7569 107.5555 55.8554 107.8431 55.6893 Z" clip-path="url(#1059046431934-clipPath1)" stroke="none"
    /></g
    ><g fill="red" text-rendering="geometricPrecision" stroke="red"
    ><path d="M83.3175 42.7101 L83.3175 22.0273 C83.3175 21.6952 83.0484 21.4261 82.7163 21.4261 C82.3841 21.4261 82.115 21.6952 82.115 22.0273 L82.115 42.7101 C82.115 43.0422 82.3841 43.3113 82.7163 43.3113 C83.0484 43.3113 83.3175 43.0422 83.3175 42.7101 Z" stroke="none" clip-path="url(#1059046431258-clipPath1)"
      /><path fill="black" d="M83.3175 42.7101 L83.3175 22.0273 C83.3175 21.6952 83.0484 21.4261 82.7163 21.4261 C82.3841 21.4261 82.115 21.6952 82.115 22.0273 L82.115 42.7101 C82.115 43.0422 82.3841 43.3113 82.7163 43.3113 C83.0484 43.3113 83.3175 43.0422 83.3175 42.7101 Z" clip-path="url(#1059046431110-clipPath1)" stroke="none"
    /></g
    ><g text-rendering="geometricPrecision"
    ><path d="M136.6184 44.1713 L156.7348 53.1285 C157.0382 53.2636 157.3936 53.1273 157.5287 52.8238 C157.6638 52.5204 157.5274 52.1651 157.224 52.03 L137.1076 43.0727 C136.8041 42.9376 136.4488 43.074 136.3137 43.3774 C136.1786 43.6809 136.315 44.0362 136.6184 44.1713 Z" stroke="none" clip-path="url(#1059046431258-clipPath1)"
      /><path fill="rgb(51,51,153)" d="M136.6184 44.1713 L156.7348 53.1285 C157.0382 53.2636 157.3936 53.1273 157.5287 52.8238 C157.6638 52.5204 157.5274 52.1651 157.224 52.03 L137.1076 43.0727 C136.8041 42.9376 136.4488 43.074 136.3137 43.3774 C136.1786 43.6809 136.315 44.0362 136.6184 44.1713 Z" clip-path="url(#1059046431428-clipPath1)" stroke="none"
    /></g
    ><g fill="white" text-rendering="geometricPrecision" stroke="white"
    ><path d="M131.017 36.8064 C129.7819 36.8064 128.7806 37.8076 128.7806 39.0427 L128.7806 43.5153 C128.7806 44.7504 129.7819 45.7517 131.017 45.7517 L132.1849 45.7517 C133.42 45.7517 134.4213 44.7504 134.4213 43.5153 L134.4213 39.0427 C134.4213 37.8076 133.42 36.8064 132.1849 36.8064 Z" stroke="none" clip-path="url(#1059046431258-clipPath1)"
    /></g
    ><g fill="rgb(51,51,153)" text-rendering="geometricPrecision" font-size="9px" font-family="sans-serif" transform="translate(128.2806,35.279)" stroke="rgb(51,51,153)"
    ><text x="0" xml:space="preserve" y="10" clip-path="url(#1059046431945-clipPath1)" stroke="none"
      >N</text
    ></g
    ><g fill="white" text-rendering="geometricPrecision" font-size="9px" font-family="sans-serif" stroke="white"
    ><path d="M81.6088 10.3644 C80.3306 10.3644 79.2944 11.4007 79.2944 12.6789 L79.2944 17.3078 C79.2944 18.586 80.3306 19.6222 81.6088 19.6222 L83.8237 19.6222 C85.1019 19.6222 86.1381 18.586 86.1381 17.3078 L86.1381 12.6789 C86.1381 11.4007 85.1019 10.3644 83.8237 10.3644 Z" stroke="none" clip-path="url(#1059046431258-clipPath1)"
      /><text x="0" y="10" transform="translate(79.2944,8.9308)" clip-path="url(#105904643117-clipPath1)" fill="red" stroke="none" xml:space="preserve"
      >O</text
    ></g
  ></g
></svg
>

<svg color-interpolation="auto" stroke="#000" stroke-linecap="square" width="168" stroke-miterlimit="10" height="111" xmlns="http://www.w3.org/2000/svg" font-family="'Dialog'" font-size="12"><defs><clipPath id="a"><path d="M0 0h168v111H0V0z"/></clipPath><clipPath id="b"><path d="M107.543 44.266c-6.022 0-10.903 4.882-10.903 10.903 0 6.02 4.881 10.902 10.903 10.902 6.02 0 10.902-4.881 10.902-10.902 0-6.021-4.881-10.903-10.902-10.903z"/></clipPath><clipPath id="c"><path d="M82.716 32.369c-5.711 0-10.341 4.63-10.341 10.341 0 5.711 4.63 10.341 10.341 10.341 5.712 0 10.342-4.63 10.342-10.34 0-5.712-4.63-10.342-10.342-10.342z"/></clipPath><clipPath id="d"><path d="M136.863 32.612c-6.08 0-11.01 4.93-11.01 11.01s4.93 11.01 11.01 11.01 11.01-4.93 11.01-11.01-4.93-11.01-11.01-11.01z"/></clipPath><clipPath id="e"><path d="M-128.28-35.279h168v111h-168v-111z"/></clipPath><clipPath id="f"><path d="M-79.294-8.93h168v111h-168v-111z"/></clipPath></defs><path d="M33.676 43.647L10.378 58.776a.601.601 0 1 0 .655 1.008l23.298-15.128a.601.601 0 1 0-.655-1.01z" stroke="none" clip-path="url(#a)" text-rendering="geometricPrecision"/><path d="M16.493 62.476a.601.601 0 1 0-1.2.063l1.088 20.763a.601.601 0 1 0 1.2-.063zm-5.187-3.227a.601.601 0 1 0-1.2.062l1.454 27.743a.601.601 0 1 0 1.2-.063z" stroke="none" clip-path="url(#a)" text-rendering="geometricPrecision"/><path d="M11.887 87.558l24.75 12.613a.601.601 0 1 0 .545-1.071L12.434 86.486a.601.601 0 1 0-.547 1.072z" stroke="none" clip-path="url(#a)" text-rendering="geometricPrecision"/><path d="M36.783 93.026a.601.601 0 1 0 .655 1.008L54.875 82.71a.601.601 0 1 0-.655-1.009zm-.201 6.105a.601.601 0 1 0 .655 1.009l23.297-15.132a.601.601 0 0 0-.655-1.009zM34.276 43.615a.601.601 0 1 0-.546 1.072l24.753 12.61a.601.601 0 1 0 .545-1.072zm.839 6.051a.601.601 0 1 0-.546 1.072l18.525 9.437a.601.601 0 1 0 .546-1.071z" stroke="none" clip-path="url(#a)" text-rendering="geometricPrecision"/><path d="M60.807 84.472L59.356 56.73a.601.601 0 1 0-1.201.063l1.451 27.742a.601.601 0 1 0 1.201-.063z" stroke="none" clip-path="url(#a)" text-rendering="geometricPrecision"/><path d="M59.06 57.28l23.96-14.051a.601.601 0 1 0-.608-1.038l-23.96 14.052a.601.601 0 1 0 .608 1.037zM106.941 55.169v27.779a.601.601 0 1 0 1.203 0v-27.78a.601.601 0 1 0-1.203 0z" stroke="none" clip-path="url(#a)" text-rendering="geometricPrecision"/><path d="M82.447 43.248l24.826 12.458a.601.601 0 1 0 .54-1.075L82.985 42.173a.601.601 0 1 0-.54 1.075z" stroke="none" clip-path="url(#a)" text-rendering="geometricPrecision"/><g fill="#339" text-rendering="geometricPrecision" stroke="none"><path d="M107.843 55.69l18.884-10.903a.601.601 0 1 0-.602-1.041l-18.883 10.902a.601.601 0 1 0 .601 1.041z" clip-path="url(#a)"/><path fill="#000" d="M107.843 55.69l18.884-10.903a.601.601 0 1 0-.602-1.041l-18.883 10.902a.601.601 0 1 0 .601 1.041z" clip-path="url(#b)"/></g><g fill="red" text-rendering="geometricPrecision" stroke="none"><path d="M83.317 42.71V22.027a.601.601 0 1 0-1.202 0V42.71a.601.601 0 1 0 1.203 0z" clip-path="url(#a)"/><path fill="#000" d="M83.317 42.71V22.027a.601.601 0 1 0-1.202 0V42.71a.601.601 0 1 0 1.203 0z" clip-path="url(#c)"/></g><g text-rendering="geometricPrecision" stroke="none"><path d="M136.618 44.171l20.117 8.958a.601.601 0 1 0 .489-1.099l-20.116-8.957a.601.601 0 1 0-.49 1.098z" clip-path="url(#a)"/><path fill="#339" d="M136.618 44.171l20.117 8.958a.601.601 0 1 0 .489-1.099l-20.116-8.957a.601.601 0 1 0-.49 1.098z" clip-path="url(#d)"/></g><path d="M131.017 36.806a2.236 2.236 0 0 0-2.236 2.237v4.472a2.236 2.236 0 0 0 2.236 2.237h1.168a2.236 2.236 0 0 0 2.236-2.237v-4.472a2.236 2.236 0 0 0-2.236-2.237z" stroke="none" clip-path="url(#a)" fill="#fff" text-rendering="geometricPrecision"/><text y="10" clip-path="url(#e)" stroke="none" transform="translate(128.28 35.279)" fill="#339" text-rendering="geometricPrecision" font-size="9" font-family="sans-serif">N</text><g fill="#fff" text-rendering="geometricPrecision" font-size="9" font-family="sans-serif" stroke="none"><path d="M81.609 10.364a2.314 2.314 0 0 0-2.315 2.315v4.629a2.314 2.314 0 0 0 2.315 2.314h2.215a2.314 2.314 0 0 0 2.314-2.314v-4.63a2.314 2.314 0 0 0-2.314-2.314z" clip-path="url(#a)"/><text y="10" transform="translate(79.294 8.93)" clip-path="url(#f)" fill="red">O</text></g></svg>
